Media Blocks SDK/_CodeSnippets/lut-sample/BW.cube
TITLE "Generated by Resolve"
LUT_3D_SIZE 33
0.0213931 0.0213931 0.0213931
0.0213931 0.0213931 0.0213931
0.0213931 0.0213931 0.0213931
0.0213931 0.0213931 0.0213931
0.0204776 0.0204776 0.0204776
0.0181582 0.0181582 0.0181582
0.0148318 0.0148318 0.0148318
0.0209049 0.0209049 0.0209049
0.0273442 0.0273442 0.0273442
0.0340276 0.0340276 0.0340276
0.0413367 0.0413367 0.0413367
0.0504463 0.0504463 0.0504463
0.0595712 0.0595712 0.0595712
0.068513 0.068513 0.068513
0.0772412 0.0772412 0.0772412
0.0856794 0.0856794 0.0856794
0.0943008 0.0943008 0.0943008
0.102861 0.102861 0.102861
0.111345 0.111345 0.111345
0.119692 0.119692 0.119692
0.127825 0.127825 0.127825
0.135729 0.135729 0.135729
0.143389 0.143389 0.143389
0.15079 0.15079 0.15079
0.157946 0.157946 0.157946
0.164858 0.164858 0.164858
0.171542 0.171542 0.171542
0.178058 0.178058 0.178058
0.184451 0.184451 0.184451
0.190768 0.190768 0.190768
0.197055 0.197055 0.197055
0.203326 0.203326 0.203326
0.209583 0.209583 0.209583
0.0213931 0.0213931 0.0213931
0.0213931 0.0213931 0.0213931
0.0213931 0.0213931 0.0213931
0.0213931 0.0213931 0.0213931
0.0204166 0.0204166 0.0204166
0.0180362 0.0180362 0.0180362
0.0149996 0.0149996 0.0149996
0.0210422 0.0210422 0.0210422
0.0274662 0.0274662 0.0274662
0.0341039 0.0341039 0.0341039
0.0413825 0.0413825 0.0413825
0.0504005 0.0504005 0.0504005
0.0592813 0.0592813 0.0592813
0.0682231 0.0682231 0.0682231
0.0770275 0.0770275 0.0770275
0.0857252 0.0857252 0.0857252
0.0944076 0.0944076 0.0944076
0.103014 0.103014 0.103014
0.111528 0.111528 0.111528
0.119875 0.119875 0.119875
0.128023 0.128023 0.128023
0.135958 0.135958 0.135958
0.143633 0.143633 0.143633
0.15108 0.15108 0.15108
0.158267 0.158267 0.158267
0.165179 0.165179 0.165179
0.171893 0.171893 0.171893
0.178454 0.178454 0.178454
0.184863 0.184863 0.184863
0.191211 0.191211 0.191211
0.197543 0.197543 0.197543
0.203876 0.203876 0.203876
0.210163 0.210163 0.210163
0.0213931 0.0213931 0.0213931
0.0213931 0.0213931 0.0213931
0.0213931 0.0213931 0.0213931
0.0213931 0.0213931 0.0213931
0.0203708 0.0203708 0.0203708
0.0179904 0.0179904 0.0179904
0.0150454 0.0150454 0.0150454
0.0210422 0.0210422 0.0210422
0.0272679 0.0272679 0.0272679
0.0338598 0.0338598 0.0338598
0.0410925 0.0410925 0.0410925
0.0501869 0.0501869 0.0501869
0.0593271 0.0593271 0.0593271
0.0683299 0.0683299 0.0683299
0.0771649 0.0771649 0.0771649
0.0858778 0.0858778 0.0858778
0.0945907 0.0945907 0.0945907
0.103212 0.103212 0.103212
0.111757 0.111757 0.111757
0.120119 0.120119 0.120119
0.128298 0.128298 0.128298
0.136263 0.136263 0.136263
0.143954 0.143954 0.143954
0.151415 0.151415 0.151415
0.158633 0.158633 0.158633
0.165591 0.165591 0.165591
0.172351 0.172351 0.172351
0.178943 0.178943 0.178943
0.185397 0.185397 0.185397
0.191806 0.191806 0.191806
0.198184 0.198184 0.198184
0.204547 0.204547 0.204547
0.21091 0.21091 0.21091
0.0213931 0.0213931 0.0213931
0.0213931 0.0213931 0.0213931
0.0213931 0.0213931 0.0213931
0.0213931 0.0213931 0.0213931
0.0203861 0.0203861 0.0203861
0.0181277 0.0181277 0.0181277
0.0148013 0.0148013 0.0148013
0.0208133 0.0208133 0.0208133
0.0272374 0.0272374 0.0272374
0.0339208 0.0339208 0.0339208
0.0411994 0.0411994 0.0411994
0.0503395 0.0503395 0.0503395
0.0595102 0.0595102 0.0595102
0.0685283 0.0685283 0.0685283
0.0773632 0.0773632 0.0773632
0.0861067 0.0861067 0.0861067
0.0948348 0.0948348 0.0948348
0.103487 0.103487 0.103487
0.112032 0.112032 0.112032
0.120455 0.120455 0.120455
0.128649 0.128649 0.128649
0.136645 0.136645 0.136645
0.144381 0.144381 0.144381
0.151888 0.151888 0.151888
0.159136 0.159136 0.159136
0.166125 0.166125 0.166125
0.17293 0.17293 0.17293
0.179568 0.179568 0.179568
0.186099 0.186099 0.186099
0.192554 0.192554 0.192554
0.198993 0.198993 0.198993
0.205432 0.205432 0.205432
0.211856 0.211856 0.211856
0.0413062 0.0413062 0.0413062
0.0410773 0.0410773 0.0410773
0.0404974 0.0404974 0.0404974
0.0404517 0.0404517 0.0404517
0.0367437 0.0367437 0.0367437
0.0346227 0.0346227 0.0346227
0.0317845 0.0317845 0.0317845
0.036347 0.036347 0.036347
0.0420386 0.0420386 0.0420386
0.0478065 0.0478065 0.0478065
0.0536049 0.0536049 0.0536049
0.0594644 0.0594644 0.0594644
0.0657511 0.0657511 0.0657511
0.0726024 0.0726024 0.0726024
0.0797589 0.0797589 0.0797589
0.0872511 0.0872511 0.0872511
0.0952468 0.0952468 0.0952468
0.103883 0.103883 0.103883
0.112459 0.112459 0.112459
0.120882 0.120882 0.120882
0.129091 0.129091 0.129091
0.137102 0.137102 0.137102
0.144869 0.144869 0.144869
0.152407 0.152407 0.152407
0.159731 0.159731 0.159731
0.166796 0.166796 0.166796
0.173663 0.173663 0.173663
0.180423 0.180423 0.180423
0.18706 0.18706 0.18706
0.193637 0.193637 0.193637
0.200183 0.200183 0.200183
0.20676 0.20676 0.20676
0.213321 0.213321 0.213321
0.0607462 0.0607462 0.0607462
0.0608377 0.0608377 0.0608377
0.0609293 0.0609293 0.0609293
0.0610666 0.0610666 0.0610666
0.0594339 0.0594339 0.0594339
0.0533761 0.0533761 0.0533761
0.051194 0.051194 0.051194
0.0560006 0.0560006 0.0560006
0.0618296 0.0618296 0.0618296
0.067689 0.067689 0.067689
0.073579 0.073579 0.073579
0.0794995 0.0794995 0.0794995
0.0854963 0.0854963 0.0854963
0.0915541 0.0915541 0.0915541
0.0975967 0.0975967 0.0975967
0.103716 0.103716 0.103716
0.10988 0.10988 0.10988
0.116136 0.116136 0.116136
0.122438 0.122438 0.122438
0.128771 0.128771 0.128771
0.135256 0.135256 0.135256
0.142016 0.142016 0.142016
0.148806 0.148806 0.148806
0.15552 0.15552 0.15552
0.162036 0.162036 0.162036
0.168475 0.168475 0.168475
0.175753 0.175753 0.175753
0.183261 0.183261 0.183261
0.190692 0.190692 0.190692
0.19794 0.19794 0.19794
0.205142 0.205142 0.205142
0.212177 0.212177 0.212177
0.219089 0.219089 0.219089
0.0814069 0.0814069 0.0814069
0.08159 0.08159 0.08159
0.0817731 0.0817731 0.0817731
0.0819562 0.0819562 0.0819562
0.0818036 0.0818036 0.0818036
0.0783703 0.0783703 0.0783703
0.0706645 0.0706645 0.0706645
0.0760204 0.0760204 0.0760204
0.0819409 0.0819409 0.0819409
0.087892 0.087892 0.087892
0.0939193 0.0939193 0.0939193
0.100008 0.100008 0.100008
0.106188 0.106188 0.106188
0.112337 0.112337 0.112337
0.118563 0.118563 0.118563
0.12488 0.12488 0.12488
0.131212 0.131212 0.131212
0.137697 0.137697 0.137697
0.144152 0.144152 0.144152
0.150744 0.150744 0.150744
0.157366 0.157366 0.157366
0.16408 0.16408 0.16408
0.170901 0.170901 0.170901
0.177768 0.177768 0.177768
0.184726 0.184726 0.184726
0.191714 0.191714 0.191714
0.19881 0.19881 0.19881
0.205982 0.205982 0.205982
0.21323 0.21323 0.21323
0.2206 0.2206 0.2206
0.227985 0.227985 0.227985
0.235492 0.235492 0.235492
0.243076 0.243076 0.243076
0.102739 0.102739 0.102739
0.102968 0.102968 0.102968
0.103197 0.103197 0.103197
0.103471 0.103471 0.103471
0.103593 0.103593 0.103593
0.102922 0.102922 0.102922
0.0967575 0.0967575 0.0967575
0.0966201 0.0966201 0.0966201
0.102571 0.102571 0.102571
0.10869 0.10869 0.10869
0.11487 0.11487 0.11487
0.121141 0.121141 0.121141
0.127459 0.127459 0.127459
0.133837 0.133837 0.133837
0.140276 0.140276 0.140276
0.146822 0.146822 0.146822
0.153384 0.153384 0.153384
0.160143 0.160143 0.160143
0.166873 0.166873 0.166873
0.173739 0.173739 0.173739
0.180636 0.180636 0.180636
0.187701 0.187701 0.187701
0.194781 0.194781 0.194781
0.201938 0.201938 0.201938
0.209171 0.209171 0.209171
0.216403 0.216403 0.216403
0.223804 0.223804 0.223804
0.231312 0.231312 0.231312
0.238865 0.238865 0.238865
0.246509 0.246509 0.246509
0.25417 0.25417 0.25417
0.261952 0.261952 0.261952
0.269825 0.269825 0.269825
0.12459 0.12459 0.12459
0.12491 0.12491 0.12491
0.125292 0.125292 0.125292
0.125612 0.125612 0.125612
0.125887 0.125887 0.125887
0.125856 0.125856 0.125856
0.123964 0.123964 0.123964
0.119036 0.119036 0.119036
0.123812 0.123812 0.123812
0.130114 0.130114 0.130114
0.136538 0.136538 0.136538
0.143023 0.143023 0.143023
0.149569 0.149569 0.149569
0.156207 0.156207 0.156207
0.162921 0.162921 0.162921
0.16968 0.16968 0.16968
0.176669 0.176669 0.176669
0.183612 0.183612 0.183612
0.190692 0.190692 0.190692
0.197803 0.197803 0.197803
0.205005 0.205005 0.205005
0.21236 0.21236 0.21236
0.219715 0.219715 0.219715
0.227131 0.227131 0.227131
0.234623 0.234623 0.234623
0.242222 0.242222 0.242222
0.249897 0.249897 0.249897
0.257755 0.257755 0.257755
0.265599 0.265599 0.265599
0.273457 0.273457 0.273457
0.281392 0.281392 0.281392
0.289418 0.289418 0.289418
0.29749 0.29749 0.29749
0.147204 0.147204 0.147204
0.147631 0.147631 0.147631
0.148089 0.148089 0.148089
0.148592 0.148592 0.148592
0.148989 0.148989 0.148989
0.149157 0.149157 0.149157
0.148669 0.148669 0.148669
0.145235 0.145235 0.145235
0.145998 0.145998 0.145998
0.152392 0.152392 0.152392
0.15903 0.15903 0.15903
0.16582 0.16582 0.16582
0.172702 0.172702 0.172702
0.179599 0.179599 0.179599
0.186572 0.186572 0.186572
0.193622 0.193622 0.193622
0.200931 0.200931 0.200931
0.208194 0.208194 0.208194
0.215549 0.215549 0.215549
0.22298 0.22298 0.22298
0.230472 0.230472 0.230472
0.238102 0.238102 0.238102
0.245701 0.245701 0.245701
0.253452 0.253452 0.253452
0.261265 0.261265 0.261265
0.269154 0.269154 0.269154
0.277119 0.277119 0.277119
0.285145 0.285145 0.285145
0.293172 0.293172 0.293172
0.30132 0.30132 0.30132
0.309438 0.309438 0.309438
0.317571 0.317571 0.317571
0.325856 0.325856 0.325856
0.170443 0.170443 0.170443
0.171038 0.171038 0.171038
0.171633 0.171633 0.171633
0.17229 0.17229 0.17229
0.17293 0.17293 0.17293
0.173373 0.173373 0.173373
0.173434 0.173434 0.173434
0.17229 0.17229 0.17229
0.169818 0.169818 0.169818
0.175784 0.175784 0.175784
0.182635 0.182635 0.182635
0.18967 0.18967 0.18967
0.196811 0.196811 0.196811
0.203998 0.203998 0.203998
0.211276 0.211276 0.211276
0.218677 0.218677 0.218677
0.22623 0.22623 0.22623
0.233799 0.233799 0.233799
0.241443 0.241443 0.241443
0.249165 0.249165 0.249165
0.257008 0.257008 0.257008
0.264881 0.264881 0.264881
0.272801 0.272801 0.272801
0.280842 0.280842 0.280842
0.288869 0.288869 0.288869
0.296925 0.296925 0.296925
0.305135 0.305135 0.305135
0.313359 0.313359 0.313359
0.321569 0.321569 0.321569
0.329778 0.329778 0.329778
0.338003 0.338003 0.338003
0.346349 0.346349 0.346349
0.354665 0.354665 0.354665
0.194476 0.194476 0.194476
0.195209 0.195209 0.195209
0.196033 0.196033 0.196033
0.196872 0.196872 0.196872
0.197757 0.197757 0.197757
0.198505 0.198505 0.198505
0.198901 0.198901 0.198901
0.198703 0.198703 0.198703
0.196811 0.196811 0.196811
0.200214 0.200214 0.200214
0.207309 0.207309 0.207309
0.214511 0.214511 0.214511
0.221897 0.221897 0.221897
0.22945 0.22945 0.22945
0.237095 0.237095 0.237095
0.2448 0.2448 0.2448
0.252598 0.252598 0.252598
0.260471 0.260471 0.260471
0.268406 0.268406 0.268406
0.276402 0.276402 0.276402
0.284474 0.284474 0.284474
0.292576 0.292576 0.292576
0.30074 0.30074 0.30074
0.308934 0.308934 0.308934
0.317174 0.317174 0.317174
0.325399 0.325399 0.325399
0.333761 0.333761 0.333761
0.342077 0.342077 0.342077
0.350347 0.350347 0.350347
0.358679 0.358679 0.358679
0.367056 0.367056 0.367056
0.375402 0.375402 0.375402
0.383719 0.383719 0.383719
0.219242 0.219242 0.219242
0.220203 0.220203 0.220203
0.221271 0.221271 0.221271
0.222324 0.222324 0.222324
0.223468 0.223468 0.223468
0.224537 0.224537 0.224537
0.225254 0.225254 0.225254
0.225513 0.225513 0.225513
0.224598 0.224598 0.224598
0.225834 0.225834 0.225834
0.233051 0.233051 0.233051
0.240513 0.240513 0.240513
0.248112 0.248112 0.248112
0.255924 0.255924 0.255924
0.263828 0.263828 0.263828
0.271855 0.271855 0.271855
0.279957 0.279957 0.279957
0.28809 0.28809 0.28809
0.296193 0.296193 0.296193
0.304417 0.304417 0.304417
0.312673 0.312673 0.312673
0.320989 0.320989 0.320989
0.32929 0.32929 0.32929
0.337636 0.337636 0.337636
0.345953 0.345953 0.345953
0.35433 0.35433 0.35433
0.362707 0.362707 0.362707
0.371069 0.371069 0.371069
0.379461 0.379461 0.379461
0.387793 0.387793 0.387793
0.396155 0.396155 0.396155
0.404501 0.404501 0.404501
0.412833 0.412833 0.412833
0.244816 0.244816 0.244816
0.246052 0.246052 0.246052
0.247303 0.247303 0.247303
0.248646 0.248646 0.248646
0.250004 0.250004 0.250004
0.251377 0.251377 0.251377
0.252399 0.252399 0.252399
0.25301 0.25301 0.25301
0.252918 0.252918 0.252918
0.252659 0.252659 0.252659
0.259785 0.259785 0.259785
0.267552 0.267552 0.267552
0.275395 0.275395 0.275395
0.283391 0.283391 0.283391
0.291463 0.291463 0.291463
0.299718 0.299718 0.299718
0.308034 0.308034 0.308034
0.316365 0.316365 0.316365
0.324651 0.324651 0.324651
0.333028 0.333028 0.333028
0.341405 0.341405 0.341405
0.349798 0.349798 0.349798
0.358206 0.358206 0.358206
0.366598 0.366598 0.366598
0.375006 0.375006 0.375006
0.383444 0.383444 0.383444
0.391806 0.391806 0.391806
0.400214 0.400214 0.400214
0.408545 0.408545 0.408545
0.416846 0.416846 0.416846
0.425193 0.425193 0.425193
0.433433 0.433433 0.433433
0.441688 0.441688 0.441688
0.271138 0.271138 0.271138
0.272618 0.272618 0.272618
0.274144 0.274144 0.274144
0.275715 0.275715 0.275715
0.277317 0.277317 0.277317
0.279011 0.279011 0.279011
0.280339 0.280339 0.280339
0.281209 0.281209 0.281209
0.281605 0.281605 0.281605
0.2813 0.2813 0.2813
0.287388 0.287388 0.287388
0.29546 0.29546 0.29546
0.303502 0.303502 0.303502
0.311589 0.311589 0.311589
0.31986 0.31986 0.31986
0.328161 0.328161 0.328161
0.336645 0.336645 0.336645
0.345037 0.345037 0.345037
0.353491 0.353491 0.353491
0.361959 0.361959 0.361959
0.370428 0.370428 0.370428
0.378866 0.378866 0.378866
0.387289 0.387289 0.387289
0.395682 0.395682 0.395682
0.40412 0.40412 0.40412
0.412497 0.412497 0.412497
0.420844 0.420844 0.420844
0.429175 0.429175 0.429175
0.437415 0.437415 0.437415
0.445716 0.445716 0.445716
0.454047 0.454047 0.454047
0.462394 0.462394 0.462394
0.470726 0.470726 0.470726
0.298314 0.298314 0.298314
0.300023 0.300023 0.300023
0.301778 0.301778 0.301778
0.303624 0.303624 0.303624
0.305486 0.305486 0.305486
0.307408 0.307408 0.307408
0.308995 0.308995 0.308995
0.31017 0.31017 0.31017
0.310826 0.310826 0.310826
0.310399 0.310399 0.310399
0.315679 0.315679 0.315679
0.323934 0.323934 0.323934
0.332158 0.332158 0.332158
0.340414 0.340414 0.340414
0.348669 0.348669 0.348669
0.357046 0.357046 0.357046
0.365576 0.365576 0.365576
0.374014 0.374014 0.374014
0.382544 0.382544 0.382544
0.391028 0.391028 0.391028
0.399512 0.399512 0.399512
0.40795 0.40795 0.40795
0.416327 0.416327 0.416327
0.424735 0.424735 0.424735
0.433066 0.433066 0.433066
0.441413 0.441413 0.441413
0.449699 0.449699 0.449699
0.458045 0.458045 0.458045
0.466392 0.466392 0.466392
0.474739 0.474739 0.474739
0.483192 0.483192 0.483192
0.4916 0.4916 0.4916
0.500023 0.500023 0.500023
0.326375 0.326375 0.326375
0.328313 0.328313 0.328313
0.330312 0.330312 0.330312
0.332341 0.332341 0.332341
0.334401 0.334401 0.334401
0.336599 0.336599 0.336599
0.338384 0.338384 0.338384
0.339727 0.339727 0.339727
0.340581 0.340581 0.340581
0.340673 0.340673 0.340673
0.344472 0.344472 0.344472
0.352865 0.352865 0.352865
0.361227 0.361227 0.361227
0.369558 0.369558 0.369558
0.37789 0.37789 0.37789
0.386206 0.386206 0.386206
0.394644 0.394644 0.394644
0.403128 0.403128 0.403128
0.411582 0.411582 0.411582
0.420035 0.420035 0.420035
0.428412 0.428412 0.428412
0.436866 0.436866 0.436866
0.445243 0.445243 0.445243
0.453605 0.453605 0.453605
0.462028 0.462028 0.462028
0.47039 0.47039 0.47039
0.478782 0.478782 0.478782
0.487236 0.487236 0.487236
0.495628 0.495628 0.495628
0.504051 0.504051 0.504051
0.512551 0.512551 0.512551
0.520989 0.520989 0.520989
0.529442 0.529442 0.529442
0.355184 0.355184 0.355184
0.357305 0.357305 0.357305
0.359487 0.359487 0.359487
0.361654 0.361654 0.361654
0.363943 0.363943 0.363943
0.366278 0.366278 0.366278
0.368185 0.368185 0.368185
0.36968 0.36968 0.36968
0.370657 0.370657 0.370657
0.371008 0.371008 0.371008
0.373648 0.373648 0.373648
0.382025 0.382025 0.382025
0.390463 0.390463 0.390463
0.39881 0.39881 0.39881
0.407141 0.407141 0.407141
0.415412 0.415412 0.415412
0.423728 0.423728 0.423728
0.432074 0.432074 0.432074
0.440421 0.440421 0.440421
0.448814 0.448814 0.448814
0.457267 0.457267 0.457267
0.465766 0.465766 0.465766
0.474266 0.474266 0.474266
0.482734 0.482734 0.482734
0.491218 0.491218 0.491218
0.499687 0.499687 0.499687
0.508125 0.508125 0.508125
0.516518 0.516518 0.516518
0.525032 0.525032 0.525032
0.533486 0.533486 0.533486
0.541909 0.541909 0.541909
0.550362 0.550362 0.550362
0.558785 0.558785 0.558785
0.384558 0.384558 0.384558
0.386831 0.386831 0.386831
0.38909 0.38909 0.38909
0.391363 0.391363 0.391363
0.39379 0.39379 0.39379
0.396246 0.396246 0.396246
0.398276 0.398276 0.398276
0.399863 0.399863 0.399863
0.4009 0.4009 0.4009
0.401312 0.401312 0.401312
0.403006 0.403006 0.403006
0.411154 0.411154 0.411154
0.419577 0.419577 0.419577
0.427955 0.427955 0.427955
0.436179 0.436179 0.436179
0.44445 0.44445 0.44445
0.452705 0.452705 0.452705
0.460975 0.460975 0.460975
0.469413 0.469413 0.469413
0.477867 0.477867 0.477867
0.486351 0.486351 0.486351
0.494926 0.494926 0.494926
0.503517 0.503517 0.503517
0.512047 0.512047 0.512047
0.520546 0.520546 0.520546
0.528984 0.528984 0.528984
0.537423 0.537423 0.537423
0.545907 0.545907 0.545907
0.554421 0.554421 0.554421
0.562844 0.562844 0.562844
0.571237 0.571237 0.571237
0.579599 0.579599 0.579599
0.58793 0.58793 0.58793
0.414221 0.414221 0.414221
0.416541 0.416541 0.416541
0.418891 0.418891 0.418891
0.421256 0.421256 0.421256
0.423743 0.423743 0.423743
0.426291 0.426291 0.426291
0.428351 0.428351 0.428351
0.429969 0.429969 0.429969
0.431037 0.431037 0.431037
0.43151 0.43151 0.43151
0.432349 0.432349 0.432349
0.440101 0.440101 0.440101
0.448463 0.448463 0.448463
0.456855 0.456855 0.456855
0.465232 0.465232 0.465232
0.473564 0.473564 0.473564
0.48191 0.48191 0.48191
0.490272 0.490272 0.490272
0.498619 0.498619 0.498619
0.507134 0.507134 0.507134
0.515663 0.515663 0.515663
0.524178 0.524178 0.524178
0.532799 0.532799 0.532799
0.541329 0.541329 0.541329
0.549783 0.549783 0.549783
0.558267 0.558267 0.558267
0.566751 0.566751 0.566751
0.575158 0.575158 0.575158
0.583612 0.583612 0.583612
0.591959 0.591959 0.591959
0.60029 0.60029 0.60029
0.608606 0.608606 0.608606
0.616846 0.616846 0.616846
0.443946 0.443946 0.443946
0.446357 0.446357 0.446357
0.448722 0.448722 0.448722
0.451072 0.451072 0.451072
0.453681 0.453681 0.453681
0.456199 0.456199 0.456199
0.458244 0.458244 0.458244
0.459846 0.459846 0.459846
0.460914 0.460914 0.460914
0.461387 0.461387 0.461387
0.461402 0.461402 0.461402
0.469047 0.469047 0.469047
0.477501 0.477501 0.477501
0.486 0.486 0.486
0.494453 0.494453 0.494453
0.502876 0.502876 0.502876
0.511269 0.511269 0.511269
0.519661 0.519661 0.519661
0.528023 0.528023 0.528023
0.536477 0.536477 0.536477
0.544961 0.544961 0.544961
0.55346 0.55346 0.55346
0.562005 0.562005 0.562005
0.570504 0.570504 0.570504
0.578927 0.578927 0.578927
0.587381 0.587381 0.587381
0.595819 0.595819 0.595819
0.604196 0.604196 0.604196
0.612512 0.612512 0.612512
0.620752 0.620752 0.620752
0.628977 0.628977 0.628977
0.637186 0.637186 0.637186
0.645319 0.645319 0.645319
0.473548 0.473548 0.473548
0.475914 0.475914 0.475914
0.478264 0.478264 0.478264
0.480583 0.480583 0.480583
0.483207 0.483207 0.483207
0.48571 0.48571 0.48571
0.487785 0.487785 0.487785
0.489448 0.489448 0.489448
0.490593 0.490593 0.490593
0.491203 0.491203 0.491203
0.491493 0.491493 0.491493
0.498207 0.498207 0.498207
0.506706 0.506706 0.506706
0.515236 0.515236 0.515236
0.523766 0.523766 0.523766
0.532204 0.532204 0.532204
0.540627 0.540627 0.540627
0.549065 0.549065 0.549065
0.557412 0.557412 0.557412
0.565805 0.565805 0.565805
0.574182 0.574182 0.574182
0.58262 0.58262 0.58262
0.591043 0.591043 0.591043
0.599496 0.599496 0.599496
0.607874 0.607874 0.607874
0.616205 0.616205 0.616205
0.624521 0.624521 0.624521
0.632715 0.632715 0.632715
0.640955 0.640955 0.640955
0.649058 0.649058 0.649058
0.657191 0.657191 0.657191
0.665248 0.665248 0.665248
0.673182 0.673182 0.673182
0.502831 0.502831 0.502831
0.505135 0.505135 0.505135
0.507454 0.507454 0.507454
0.509789 0.509789 0.509789
0.512551 0.512551 0.512551
0.51516 0.51516 0.51516
0.517327 0.517327 0.517327
0.519005 0.519005 0.519005
0.520272 0.520272 0.520272
0.520897 0.520897 0.520897
0.520729 0.520729 0.520729
0.527321 0.527321 0.527321
0.535973 0.535973 0.535973
0.544488 0.544488 0.544488
0.552972 0.552972 0.552972
0.561486 0.561486 0.561486
0.569879 0.569879 0.569879
0.578271 0.578271 0.578271
0.586618 0.586618 0.586618
0.594919 0.594919 0.594919
0.603174 0.603174 0.603174
0.611444 0.611444 0.611444
0.61976 0.61976 0.61976
0.628122 0.628122 0.628122
0.636393 0.636393 0.636393
0.644572 0.644572 0.644572
0.65272 0.65272 0.65272
0.660777 0.660777 0.660777
0.668818 0.668818 0.668818
0.676753 0.676753 0.676753
0.684703 0.684703 0.684703
0.692561 0.692561 0.692561
0.700267 0.700267 0.700267
0.531731 0.531731 0.531731
0.534142 0.534142 0.534142
0.536522 0.536522 0.536522
0.53904 0.53904 0.53904
0.541863 0.541863 0.541863
0.544518 0.544518 0.544518
0.546746 0.546746 0.546746
0.548486 0.548486 0.548486
0.549752 0.549752 0.549752
0.550378 0.550378 0.550378
0.550484 0.550484 0.550484
0.556466 0.556466 0.556466
0.565072 0.565072 0.565072
0.573587 0.573587 0.573587
0.582086 0.582086 0.582086
0.590509 0.590509 0.590509
0.598901 0.598901 0.598901
0.607187 0.607187 0.607187
0.615442 0.615442 0.615442
0.623652 0.623652 0.623652
0.63183 0.63183 0.63183
0.639902 0.639902 0.639902
0.648066 0.648066 0.648066
0.656184 0.656184 0.656184
0.664317 0.664317 0.664317
0.672312 0.672312 0.672312
0.680262 0.680262 0.680262
0.688121 0.688121 0.688121
0.695964 0.695964 0.695964
0.703685 0.703685 0.703685
0.711406 0.711406 0.711406
0.719036 0.719036 0.719036
0.726589 0.726589 0.726589
0.560647 0.560647 0.560647
0.563119 0.563119 0.563119
0.56553 0.56553 0.56553
0.568215 0.568215 0.568215
0.57113 0.57113 0.57113
0.573754 0.573754 0.573754
0.575952 0.575952 0.575952
0.577691 0.577691 0.577691
0.578927 0.578927 0.578927
0.579583 0.579583 0.579583
0.57937 0.57937 0.57937
0.585458 0.585458 0.585458
0.593973 0.593973 0.593973
0.602426 0.602426 0.602426
0.610819 0.610819 0.610819
0.619181 0.619181 0.619181
0.627497 0.627497 0.627497
0.635706 0.635706 0.635706
0.643824 0.643824 0.643824
0.651911 0.651911 0.651911
0.659922 0.659922 0.659922
0.667857 0.667857 0.667857
0.675746 0.675746 0.675746
0.68365 0.68365 0.68365
0.691569 0.691569 0.691569
0.699351 0.699351 0.699351
0.707073 0.707073 0.707073
0.714748 0.714748 0.714748
0.722301 0.722301 0.722301
0.729839 0.729839 0.729839
0.737316 0.737316 0.737316
0.744747 0.744747 0.744747
0.752071 0.752071 0.752071
0.589456 0.589456 0.589456
0.591959 0.591959 0.591959
0.594369 0.594369 0.594369
0.597238 0.597238 0.597238
0.600137 0.600137 0.600137
0.60267 0.60267 0.60267
0.604852 0.604852 0.604852
0.606592 0.606592 0.606592
0.607813 0.607813 0.607813
0.608438 0.608438 0.608438
0.608377 0.608377 0.608377
0.614115 0.614115 0.614115
0.622507 0.622507 0.622507
0.630884 0.630884 0.630884
0.63917 0.63917 0.63917
0.647379 0.647379 0.647379
0.655573 0.655573 0.655573
0.663645 0.663645 0.663645
0.671626 0.671626 0.671626
0.67953 0.67953 0.67953
0.687373 0.687373 0.687373
0.695125 0.695125 0.695125
0.702739 0.702739 0.702739
0.710384 0.710384 0.710384
0.718029 0.718029 0.718029
0.725628 0.725628 0.725628
0.73312 0.73312 0.73312
0.740551 0.740551 0.740551
0.74789 0.74789 0.74789
0.755199 0.755199 0.755199
0.762463 0.762463 0.762463
0.76968 0.76968 0.76968
0.776104 0.776104 0.776104
0.618067 0.618067 0.618067
0.620523 0.620523 0.620523
0.62298 0.62298 0.62298
0.626001 0.626001 0.626001
0.62884 0.62884 0.62884
0.631327 0.631327 0.631327
0.633417 0.633417 0.633417
0.635065 0.635065 0.635065
0.63624 0.63624 0.63624
0.636759 0.636759 0.636759
0.636347 0.636347 0.636347
0.642344 0.642344 0.642344
0.650568 0.650568 0.650568
0.658854 0.658854 0.658854
0.666972 0.666972 0.666972
0.675013 0.675013 0.675013
0.683009 0.683009 0.683009
0.690898 0.690898 0.690898
0.69868 0.69868 0.69868
0.706371 0.706371 0.706371
0.713985 0.713985 0.713985
0.721553 0.721553 0.721553
0.729015 0.729015 0.729015
0.7364 0.7364 0.7364
0.74377 0.74377 0.74377
0.75108 0.75108 0.75108
0.758373 0.758373 0.758373
