Media Blocks SDK/_CodeSnippets/lut-sample/BW.cube
TITLE "Generated by Resolve"
LUT_3D_SIZE 5
0.0213931 0.0213931 0.0213931
0.0273442 0.0273442 0.0273442
0.0943008 0.0943008 0.0943008
0.157946 0.157946 0.157946
0.209583 0.209583 0.209583
0.12459 0.12459 0.12459
0.123812 0.123812 0.123812
0.176669 0.176669 0.176669
0.234623 0.234623 0.234623
0.29749 0.29749 0.29749
0.326375 0.326375 0.326375
0.340581 0.340581 0.340581
0.394644 0.394644 0.394644
0.462028 0.462028 0.462028
0.529442 0.529442 0.529442
0.560647 0.560647 0.560647
0.578927 0.578927 0.578927
0.627497 0.627497 0.627497
0.691569 0.691569 0.691569
0.752071 0.752071 0.752071
0.741848 0.741848 0.741848
0.735088 0.735088 0.735088
0.775402 0.775402 0.775402
0.851865 0.851865 0.851865
0.915984 0.915984 0.915984
0.0327459 0.0327459 0.0327459
0.0378729 0.0378729 0.0378729
0.0924697 0.0924697 0.0924697
0.146761 0.146761 0.146761
0.193317 0.193317 0.193317
0.128161 0.128161 0.128161
0.135592 0.135592 0.135592
0.189715 0.189715 0.189715
0.250095 0.250095 0.250095
0.315999 0.315999 0.315999
0.328939 0.328939 0.328939
0.345296 0.345296 0.345296
0.413031 0.413031 0.413031
0.481239 0.481239 0.481239
0.550759 0.550759 0.550759
0.563943 0.563943 0.563943
0.581872 0.581872 0.581872
0.64828 0.64828 0.64828
0.711788 0.711788 0.711788
0.772107 0.772107 0.772107
0.755642 0.755642 0.755642
0.760754 0.760754 0.760754
0.808988 0.808988 0.808988
0.866758 0.866758 0.866758
0.93698 0.93698 0.93698
0.0547341 0.0547341 0.0547341
0.05832 0.05832 0.05832
0.113039 0.113039 0.113039
0.166735 0.166735 0.166735
0.213031 0.213031 0.213031
0.147295 0.147295 0.147295
0.154849 0.154849 0.154849
0.211124 0.211124 0.211124
0.27335 0.27335 0.27335
0.340444 0.340444 0.340444
0.347494 0.347494 0.347494
0.369497 0.369497 0.369497
0.437675 0.437675 0.437675
0.50634 0.50634 0.50634
0.575753 0.575753 0.575753
0.57499 0.57499 0.57499
0.604929 0.604929 0.604929
0.671763 0.671763 0.671763
0.734264 0.734264 0.734264
0.793133 0.793133 0.793133
0.765423 0.765423 0.765423
0.798886 0.798886 0.798886
0.852613 0.852613 0.852613
0.893217 0.893217 0.893217
0.961746 0.961746 0.961746
0.0757458 0.0757458 0.0757458
0.0776989 0.0776989 0.0776989
0.132937 0.132937 0.132937
0.186862 0.186862 0.186862
0.23357 0.23357 0.23357
0.166308 0.166308 0.166308
0.174838 0.174838 0.174838
0.233066 0.233066 0.233066
0.297154 0.297154 0.297154
0.365179 0.365179 0.365179
0.371466 0.371466 0.371466
0.394339 0.394339 0.394339
0.462394 0.462394 0.462394
0.53135 0.53135 0.53135
0.600473 0.600473 0.600473
0.600855 0.600855 0.600855
0.629328 0.629328 0.629328
0.69485 0.69485 0.69485
0.756191 0.756191 0.756191
0.813428 0.813428 0.813428
0.776959 0.776959 0.776959
0.812818 0.812818 0.812818
0.878004 0.878004 0.878004
0.932052 0.932052 0.932052
0.979232 0.979232 0.979232
0.0926833 0.0926833 0.0926833
0.094316 0.094316 0.094316
0.149752 0.149752 0.149752
0.203937 0.203937 0.203937
0.251133 0.251133 0.251133
0.18468 0.18468 0.18468
0.1953 0.1953 0.1953
0.255543 0.255543 0.255543
0.321218 0.321218 0.321218
0.389654 0.389654 0.389654
0.394461 0.394461 0.394461
0.418799 0.418799 0.418799
0.486946 0.486946 0.486946
0.556161 0.556161 0.556161
0.623026 0.623026 0.623026
0.623896 0.623896 0.623896
0.651957 0.651957 0.651957
0.715724 0.715724 0.715724
0.77528 0.77528 0.77528
0.830289 0.830289 0.830289
0.787396 0.787396 0.787396
0.82237 0.82237 0.82237
0.886381 0.886381 0.886381
0.943771 0.943771 0.943771
0.987396 0.987396 0.987396
