Media Blocks SDK/_CodeSnippets/lut-sample/BW.cube
TITLE "Generated by Resolve"
LUT_3D_SIZE 9
0.0213931 0.0213931 0.0213931
0.0204776 0.0204776 0.0204776
0.0273442 0.0273442 0.0273442
0.0595712 0.0595712 0.0595712
0.0943008 0.0943008 0.0943008
0.127825 0.127825 0.127825
0.157946 0.157946 0.157946
0.184451 0.184451 0.184451
0.209583 0.209583 0.209583
0.0413062 0.0413062 0.0413062
0.0367437 0.0367437 0.0367437
0.0420386 0.0420386 0.0420386
0.0657511 0.0657511 0.0657511
0.0952468 0.0952468 0.0952468
0.129091 0.129091 0.129091
0.159731 0.159731 0.159731
0.18706 0.18706 0.18706
0.213321 0.213321 0.213321
0.12459 0.12459 0.12459
0.125887 0.125887 0.125887
0.123812 0.123812 0.123812
0.149569 0.149569 0.149569
0.176669 0.176669 0.176669
0.205005 0.205005 0.205005
0.234623 0.234623 0.234623
0.265599 0.265599 0.265599
0.29749 0.29749 0.29749
0.219242 0.219242 0.219242
0.223468 0.223468 0.223468
0.224598 0.224598 0.224598
0.248112 0.248112 0.248112
0.279957 0.279957 0.279957
0.312673 0.312673 0.312673
0.345953 0.345953 0.345953
0.379461 0.379461 0.379461
0.412833 0.412833 0.412833
0.326375 0.326375 0.326375
0.334401 0.334401 0.334401
0.340581 0.340581 0.340581
0.361227 0.361227 0.361227
0.394644 0.394644 0.394644
0.428412 0.428412 0.428412
0.462028 0.462028 0.462028
0.495628 0.495628 0.495628
0.529442 0.529442 0.529442
0.443946 0.443946 0.443946
0.453681 0.453681 0.453681
0.460914 0.460914 0.460914
0.477501 0.477501 0.477501
0.511269 0.511269 0.511269
0.544961 0.544961 0.544961
0.578927 0.578927 0.578927
0.612512 0.612512 0.612512
0.645319 0.645319 0.645319
0.560647 0.560647 0.560647
0.57113 0.57113 0.57113
0.578927 0.578927 0.578927
0.593973 0.593973 0.593973
0.627497 0.627497 0.627497
0.659922 0.659922 0.659922
0.691569 0.691569 0.691569
0.722301 0.722301 0.722301
0.752071 0.752071 0.752071
0.67451 0.67451 0.67451
0.6851 0.6851 0.6851
0.691539 0.691539 0.691539
0.704845 0.704845 0.704845
0.735607 0.735607 0.735607
0.765026 0.765026 0.765026
0.793042 0.793042 0.793042
0.820111 0.820111 0.820111
0.840131 0.840131 0.840131
0.741848 0.741848 0.741848
0.739055 0.739055 0.739055
0.735088 0.735088 0.735088
0.748547 0.748547 0.748547
0.775402 0.775402 0.775402
0.806546 0.806546 0.806546
0.851865 0.851865 0.851865
0.902449 0.902449 0.902449
0.915984 0.915984 0.915984
0.0234684 0.0234684 0.0234684
0.022034 0.022034 0.022034
0.0290074 0.0290074 0.0290074
0.0599527 0.0599527 0.0599527
0.0944228 0.0944228 0.0944228
0.127871 0.127871 0.127871
0.158038 0.158038 0.158038
0.184573 0.184573 0.184573
0.209781 0.209781 0.209781
0.0407416 0.0407416 0.0407416
0.0387884 0.0387884 0.0387884
0.0439002 0.0439002 0.0439002
0.0671855 0.0671855 0.0671855
0.0957961 0.0957961 0.0957961
0.129442 0.129442 0.129442
0.160113 0.160113 0.160113
0.187701 0.187701 0.187701
0.214328 0.214328 0.214328
0.124865 0.124865 0.124865
0.126345 0.126345 0.126345
0.126223 0.126223 0.126223
0.152071 0.152071 0.152071
0.17937 0.17937 0.17937
0.208255 0.208255 0.208255
0.23859 0.23859 0.23859
0.270542 0.270542 0.270542
0.303807 0.303807 0.303807
0.220508 0.220508 0.220508
0.224979 0.224979 0.224979
0.226596 0.226596 0.226596
0.252247 0.252247 0.252247
0.284596 0.284596 0.284596
0.317937 0.317937 0.317937
0.351965 0.351965 0.351965
0.386206 0.386206 0.386206
0.420584 0.420584 0.420584
0.328969 0.328969 0.328969
0.33724 0.33724 0.33724
0.343343 0.343343 0.343343
0.366964 0.366964 0.366964
0.400702 0.400702 0.400702
0.434745 0.434745 0.434745
0.468986 0.468986 0.468986
0.503578 0.503578 0.503578
0.538354 0.538354 0.538354
0.446952 0.446952 0.446952
0.45655 0.45655 0.45655
0.463691 0.463691 0.463691
0.484352 0.484352 0.484352
0.518608 0.518608 0.518608
0.552666 0.552666 0.552666
0.587152 0.587152 0.587152
0.621241 0.621241 0.621241
0.654765 0.654765 0.654765
0.56347 0.56347 0.56347
0.573877 0.573877 0.573877
0.581628 0.581628 0.581628
0.602625 0.602625 0.602625
0.636286 0.636286 0.636286
0.668894 0.668894 0.668894
0.70042 0.70042 0.70042
0.731517 0.731517 0.731517
0.761486 0.761486 0.761486
0.676661 0.676661 0.676661
0.687099 0.687099 0.687099
0.693126 0.693126 0.693126
0.715129 0.715129 0.715129
0.745464 0.745464 0.745464
0.774609 0.774609 0.774609
0.802487 0.802487 0.802487
0.829557 0.829557 0.829557
0.851316 0.851316 0.851316
0.749889 0.749889 0.749889
0.747509 0.747509 0.747509
0.743633 0.743633 0.743633
0.766262 0.766262 0.766262
0.790967 0.790967 0.790967
0.818112 0.818112 0.818112
0.859113 0.859113 0.859113
0.90869 0.90869 0.90869
0.925902 0.925902 0.925902
0.0327459 0.0327459 0.0327459
0.0315862 0.0315862 0.0315862
0.0378729 0.0378729 0.0378729
0.0647135 0.0647135 0.0647135
0.0924697 0.0924697 0.0924697
0.120211 0.120211 0.120211
0.146761 0.146761 0.146761
0.170535 0.170535 0.170535
0.193317 0.193317 0.193317
0.0482032 0.0482032 0.0482032
0.0472877 0.0472877 0.0472877
0.052369 0.052369 0.052369
0.0755474 0.0755474 0.0755474
0.099321 0.099321 0.099321
0.12401 0.12401 0.12401
0.150515 0.150515 0.150515
0.177981 0.177981 0.177981
0.206516 0.206516 0.206516
0.128161 0.128161 0.128161
0.129076 0.129076 0.129076
0.135592 0.135592 0.135592
0.161959 0.161959 0.161959
0.189715 0.189715 0.189715
0.219059 0.219059 0.219059
0.250095 0.250095 0.250095
0.282445 0.282445 0.282445
0.315999 0.315999 0.315999
0.220111 0.220111 0.220111
0.224979 0.224979 0.224979
0.232685 0.232685 0.232685
0.263783 0.263783 0.263783
0.296483 0.296483 0.296483
0.330068 0.330068 0.330068
0.364202 0.364202 0.364202
0.398535 0.398535 0.398535
0.432731 0.432731 0.432731
0.328939 0.328939 0.328939
0.337392 0.337392 0.337392
0.345296 0.345296 0.345296
0.379339 0.379339 0.379339
0.413031 0.413031 0.413031
0.446967 0.446967 0.446967
0.481239 0.481239 0.481239
0.516014 0.516014 0.516014
0.550759 0.550759 0.550759
0.447333 0.447333 0.447333
0.456764 0.456764 0.456764
0.463508 0.463508 0.463508
0.496681 0.496681 0.496681
0.53106 0.53106 0.53106
0.565118 0.565118 0.565118
0.599374 0.599374 0.599374
0.633371 0.633371 0.633371
0.666636 0.666636 0.666636
0.563943 0.563943 0.563943
0.574182 0.574182 0.574182
0.581872 0.581872 0.581872
0.61474 0.61474 0.61474
0.64828 0.64828 0.64828
0.680598 0.680598 0.680598
0.711788 0.711788 0.711788
0.742458 0.742458 0.742458
0.772107 0.772107 0.772107
0.676982 0.676982 0.676982
0.686793 0.686793 0.686793
0.695094 0.695094 0.695094
0.726177 0.726177 0.726177
0.756207 0.756207 0.756207
0.785122 0.785122 0.785122
0.812604 0.812604 0.812604
0.839307 0.839307 0.839307
0.863005 0.863005 0.863005
0.755642 0.755642 0.755642
0.755962 0.755962 0.755962
0.760754 0.760754 0.760754
0.78558 0.78558 0.78558
0.808988 0.808988 0.808988
0.833066 0.833066 0.833066
0.866758 0.866758 0.866758
0.913436 0.913436 0.913436
0.93698 0.93698 0.93698
0.0435798 0.0435798 0.0435798
0.0425727 0.0425727 0.0425727
0.0480049 0.0480049 0.0480049
0.0747234 0.0747234 0.0747234
0.102617 0.102617 0.102617
0.130419 0.130419 0.130419
0.156268 0.156268 0.156268
0.180102 0.180102 0.180102
0.202884 0.202884 0.202884
0.0571145 0.0571145 0.0571145
0.0565347 0.0565347 0.0565347
0.0608988 0.0608988 0.0608988
0.0843824 0.0843824 0.0843824
0.108415 0.108415 0.108415
0.133486 0.133486 0.133486
0.159945 0.159945 0.159945
0.187991 0.187991 0.187991
0.217304 0.217304 0.217304
0.137682 0.137682 0.137682
0.138933 0.138933 0.138933
0.145205 0.145205 0.145205
0.171969 0.171969 0.171969
0.20029 0.20029 0.20029
0.230167 0.230167 0.230167
0.261646 0.261646 0.261646
0.294392 0.294392 0.294392
0.328145 0.328145 0.328145
0.229587 0.229587 0.229587
0.234806 0.234806 0.234806
0.243732 0.243732 0.243732
0.275654 0.275654 0.275654
0.308614 0.308614 0.308614
0.342412 0.342412 0.342412
0.376593 0.376593 0.376593
0.411017 0.411017 0.411017
0.445106 0.445106 0.445106
0.334752 0.334752 0.334752
0.343404 0.343404 0.343404
0.357214 0.357214 0.357214
0.391485 0.391485 0.391485
0.425345 0.425345 0.425345
0.459373 0.459373 0.459373
0.493828 0.493828 0.493828
0.528527 0.528527 0.528527
0.563241 0.563241 0.563241
0.450584 0.450584 0.450584
0.459266 0.459266 0.459266
0.474403 0.474403 0.474403
0.508965 0.508965 0.508965
0.543557 0.543557 0.543557
0.577554 0.577554 0.577554
0.611902 0.611902 0.611902
0.645533 0.645533 0.645533
0.678355 0.678355 0.678355
0.566247 0.566247 0.566247
0.575067 0.575067 0.575067
0.592844 0.592844 0.592844
0.626886 0.626886 0.626886
0.660166 0.660166 0.660166
0.692287 0.692287 0.692287
0.723171 0.723171 0.723171
0.753414 0.753414 0.753414
0.782635 0.782635 0.782635
0.67895 0.67895 0.67895
0.685771 0.685771 0.685771
0.706172 0.706172 0.706172
0.737057 0.737057 0.737057
0.766842 0.766842 0.766842
0.795392 0.795392 0.795392
0.822599 0.822599 0.822599
0.849104 0.849104 0.849104
0.874952 0.874952 0.874952
0.759594 0.759594 0.759594
0.760159 0.760159 0.760159
0.784268 0.784268 0.784268
0.808469 0.808469 0.808469
0.830076 0.830076 0.830076
0.85185 0.85185 0.85185
0.876997 0.876997 0.876997
0.918288 0.918288 0.918288
0.949844 0.949844 0.949844
0.0547341 0.0547341 0.0547341
0.0538796 0.0538796 0.0538796
0.05832 0.05832 0.05832
0.0850996 0.0850996 0.0850996
0.113039 0.113039 0.113039
0.140871 0.140871 0.140871
0.166735 0.166735 0.166735
0.190219 0.190219 0.190219
0.213031 0.213031 0.213031
0.0662547 0.0662547 0.0662547
0.0659495 0.0659495 0.0659495
0.0696422 0.0696422 0.0696422
0.0932631 0.0932631 0.0932631
0.117662 0.117662 0.117662
0.143267 0.143267 0.143267
0.170123 0.170123 0.170123
0.198428 0.198428 0.198428
0.22829 0.22829 0.22829
0.147295 0.147295 0.147295
0.148898 0.148898 0.148898
0.154849 0.154849 0.154849
0.182269 0.182269 0.182269
0.211124 0.211124 0.211124
0.241535 0.241535 0.241535
0.27335 0.27335 0.27335
0.306477 0.306477 0.306477
0.340444 0.340444 0.340444
0.240314 0.240314 0.240314
0.246067 0.246067 0.246067
0.255299 0.255299 0.255299
0.287556 0.287556 0.287556
0.320836 0.320836 0.320836
0.354788 0.354788 0.354788
0.388968 0.388968 0.388968
0.423285 0.423285 0.423285
0.45745 0.45745 0.45745
0.347494 0.347494 0.347494
0.356313 0.356313 0.356313
0.369497 0.369497 0.369497
0.403738 0.403738 0.403738
0.437675 0.437675 0.437675
0.471839 0.471839 0.471839
0.50634 0.50634 0.50634
0.541009 0.541009 0.541009
0.575753 0.575753 0.575753
0.461769 0.461769 0.461769
0.470146 0.470146 0.470146
0.486686 0.486686 0.486686
0.521202 0.521202 0.521202
0.555947 0.555947 0.555947
0.590066 0.590066 0.590066
0.624079 0.624079 0.624079
0.657496 0.657496 0.657496
0.690044 0.690044 0.690044
0.57499 0.57499 0.57499
0.58262 0.58262 0.58262
0.604929 0.604929 0.604929
0.638682 0.638682 0.638682
0.671763 0.671763 0.671763
0.7037 0.7037 0.7037
0.734264 0.734264 0.734264
0.764202 0.764202 0.764202
0.793133 0.793133 0.793133
0.685878 0.685878 0.685878
0.690211 0.690211 0.690211
0.717296 0.717296 0.717296
0.747829 0.747829 0.747829
0.777249 0.777249 0.777249
0.805554 0.805554 0.805554
0.832639 0.832639 0.832639
0.858915 0.858915 0.858915
0.884886 0.884886 0.884886
0.765423 0.765423 0.765423
0.767819 0.767819 0.767819
0.798886 0.798886 0.798886
0.828443 0.828443 0.828443
0.852613 0.852613 0.852613
0.87277 0.87277 0.87277
0.893217 0.893217 0.893217
0.925185 0.925185 0.925185
0.961746 0.961746 0.961746
0.0657511 0.0657511 0.0657511
0.0650797 0.0650797 0.0650797
0.0683146 0.0683146 0.0683146
0.0953994 0.0953994 0.0953994
0.123384 0.123384 0.123384
0.151263 0.151263 0.151263
0.177188 0.177188 0.177188
0.200763 0.200763 0.200763
0.223682 0.223682 0.223682
0.0754101 0.0754101 0.0754101
0.0754559 0.0754559 0.0754559
0.0784466 0.0784466 0.0784466
0.102312 0.102312 0.102312
0.127062 0.127062 0.127062
0.153964 0.153964 0.153964
0.180972 0.180972 0.180972
0.209232 0.209232 0.209232
0.239597 0.239597 0.239597
0.156893 0.156893 0.156893
0.158938 0.158938 0.158938
0.164828 0.164828 0.164828
0.19263 0.19263 0.19263
0.222049 0.222049 0.222049
0.252857 0.252857 0.252857
0.285222 0.285222 0.285222
0.318639 0.318639 0.318639
0.35285 0.35285 0.35285
0.251194 0.251194 0.251194
0.257298 0.257298 0.257298
0.266835 0.266835 0.266835
0.299519 0.299519 0.299519
0.333013 0.333013 0.333013
0.367102 0.367102 0.367102
0.401419 0.401419 0.401419
0.435615 0.435615 0.435615
0.469932 0.469932 0.469932
0.359625 0.359625 0.359625
0.368429 0.368429 0.368429
0.381949 0.381949 0.381949
0.416129 0.416129 0.416129
0.450034 0.450034 0.450034
0.484276 0.484276 0.484276
0.518959 0.518959 0.518959
0.553613 0.553613 0.553613
0.588144 0.588144 0.588144
0.474723 0.474723 0.474723
0.483116 0.483116 0.483116
0.499168 0.499168 0.499168
0.533745 0.533745 0.533745
0.568276 0.568276 0.568276
0.602533 0.602533 0.602533
0.636301 0.636301 0.636301
0.669413 0.669413 0.669413
0.70164 0.70164 0.70164
0.588312 0.588312 0.588312
0.595728 0.595728 0.595728
0.617227 0.617227 0.617227
0.650645 0.650645 0.650645
0.683299 0.683299 0.683299
0.714961 0.714961 0.714961
0.745296 0.745296 0.745296
0.774945 0.774945 0.774945
0.803326 0.803326 0.803326
0.697841 0.697841 0.697841
0.70103 0.70103 0.70103
0.728374 0.728374 0.728374
0.758465 0.758465 0.758465
0.787503 0.787503 0.787503
0.815488 0.815488 0.815488
0.842405 0.842405 0.842405
0.868498 0.868498 0.868498
0.894362 0.894362 0.894362
0.770382 0.770382 0.770382
0.774716 0.774716 0.774716
0.808072 0.808072 0.808072
0.840497 0.840497 0.840497
0.869673 0.869673 0.869673
0.894484 0.894484 0.894484
0.912795 0.912795 0.912795
0.934157 0.934157 0.934157
0.97232 0.97232 0.97232
0.0757458 0.0757458 0.0757458
0.0751202 0.0751202 0.0751202
0.0776989 0.0776989 0.0776989
0.104921 0.104921 0.104921
0.132937 0.132937 0.132937
0.160876 0.160876 0.160876
0.186862 0.186862 0.186862
0.210529 0.210529 0.210529
0.23357 0.23357 0.23357
0.0843671 0.0843671 0.0843671
0.0844892 0.0844892 0.0844892
0.0872511 0.0872511 0.0872511
0.111421 0.111421 0.111421
0.136599 0.136599 0.136599
0.163897 0.163897 0.163897
0.191043 0.191043 0.191043
0.220081 0.220081 0.220081
0.251011 0.251011 0.251011
0.166308 0.166308 0.166308
0.168688 0.168688 0.168688
0.174838 0.174838 0.174838
0.203311 0.203311 0.203311
0.233066 0.233066 0.233066
0.264469 0.264469 0.264469
0.297154 0.297154 0.297154
0.330846 0.330846 0.330846
0.365179 0.365179 0.365179
0.261936 0.261936 0.261936
0.268345 0.268345 0.268345
0.278569 0.278569 0.278569
0.31162 0.31162 0.31162
0.345312 0.345312 0.345312
0.379568 0.379568 0.379568
0.413748 0.413748 0.413748
0.447807 0.447807 0.447807
0.482322 0.482322 0.482322
0.371466 0.371466 0.371466
0.380377 0.380377 0.380377
0.394339 0.394339 0.394339
0.428397 0.428397 0.428397
0.462394 0.462394 0.462394
0.496742 0.496742 0.496742
0.53135 0.53135 0.53135
0.566064 0.566064 0.566064
0.600473 0.600473 0.600473
0.486641 0.486641 0.486641
0.495079 0.495079 0.495079
0.51165 0.51165 0.51165
0.546288 0.546288 0.546288
0.580667 0.580667 0.580667
0.61474 0.61474 0.61474
0.64828 0.64828 0.64828
0.681102 0.681102 0.681102
0.712917 0.712917 0.712917
0.600855 0.600855 0.600855
0.608072 0.608072 0.608072
0.629328 0.629328 0.629328
0.662531 0.662531 0.662531
0.69485 0.69485 0.69485
0.72604 0.72604 0.72604
0.756191 0.756191 0.756191
0.785367 0.785367 0.785367
0.813428 0.813428 0.813428
0.710399 0.710399 0.710399
0.713436 0.713436 0.713436
0.739437 0.739437 0.739437
0.7691 0.7691 0.7691
0.79765 0.79765 0.79765
0.825284 0.825284 0.825284
0.852003 0.852003 0.852003
0.877958 0.877958 0.877958
0.903822 0.903822 0.903822
0.776959 0.776959 0.776959
0.779675 0.779675 0.779675
0.812818 0.812818 0.812818
0.845792 0.845792 0.845792
0.878004 0.878004 0.878004
0.908019 0.908019 0.908019
0.932052 0.932052 0.932052
0.948898 0.948898 0.948898
0.979232 0.979232 0.979232
0.0844587 0.0844587 0.0844587
0.0838483 0.0838483 0.0838483
0.086183 0.086183 0.086183
0.113451 0.113451 0.113451
0.141512 0.141512 0.141512
0.169512 0.169512 0.169512
0.195575 0.195575 0.195575
0.219348 0.219348 0.219348
0.242527 0.242527 0.242527
0.0928817 0.0928817 0.0928817
0.0932021 0.0932021 0.0932021
0.0959793 0.0959793 0.0959793
0.120485 0.120485 0.120485
0.14609 0.14609 0.14609
0.172915 0.172915 0.172915
0.201297 0.201297 0.201297
0.231128 0.231128 0.231128
0.262486 0.262486 0.262486
0.175555 0.175555 0.175555
0.178256 0.178256 0.178256
0.18497 0.18497 0.18497
0.213931 0.213931 0.213931
0.244297 0.244297 0.244297
0.276112 0.276112 0.276112
0.309194 0.309194 0.309194
0.343099 0.343099 0.343099
0.377478 0.377478 0.377478
0.272419 0.272419 0.272419
0.279164 0.279164 0.279164
0.290379 0.290379 0.290379
0.323674 0.323674 0.323674
0.357702 0.357702 0.357702
0.391821 0.391821 0.391821
0.426047 0.426047 0.426047
0.460105 0.460105 0.460105
0.494667 0.494667 0.494667
0.383001 0.383001 0.383001
0.391821 0.391821 0.391821
0.406638 0.406638 0.406638
0.440604 0.440604 0.440604
0.474647 0.474647 0.474647
0.509194 0.509194 0.509194
0.54374 0.54374 0.54374
0.578347 0.578347 0.578347
0.612634 0.612634 0.612634
0.498222 0.498222 0.498222
0.50663 0.50663 0.50663
0.524086 0.524086 0.524086
0.558618 0.558618 0.558618
0.592981 0.592981 0.592981
0.626871 0.626871 0.626871
0.660166 0.660166 0.660166
0.692668 0.692668 0.692668
0.724102 0.724102 0.724102
0.612604 0.612604 0.612604
0.619547 0.619547 0.619547
0.641382 0.641382 0.641382
0.674342 0.674342 0.674342
0.706264 0.706264 0.706264
0.737072 0.737072 0.737072
0.766796 0.766796 0.766796
0.795682 0.795682 0.795682
0.823346 0.823346 0.823346
0.721798 0.721798 0.721798
0.724376 0.724376 0.724376
0.75024 0.75024 0.75024
0.779583 0.779583 0.779583
0.807782 0.807782 0.807782
0.835004 0.835004 0.835004
0.861433 0.861433 0.861433
0.887419 0.887419 0.887419
0.913054 0.913054 0.913054
0.784375 0.784375 0.784375
0.786511 0.786511 0.786511
0.819303 0.819303 0.819303
0.851698 0.851698 0.851698
0.883085 0.883085 0.883085
0.913283 0.913283 0.913283
0.94081 0.94081 0.94081
0.964614 0.964614 0.964614
0.985138 0.985138 0.985138
0.0926833 0.0926833 0.0926833
0.0920577 0.0920577 0.0920577
0.094316 0.094316 0.094316
0.121645 0.121645 0.121645
0.149752 0.149752 0.149752
0.177798 0.177798 0.177798
0.203937 0.203937 0.203937
0.227817 0.227817 0.227817
0.251133 0.251133 0.251133
0.101381 0.101381 0.101381
0.101778 0.101778 0.101778
0.104768 0.104768 0.104768
0.129686 0.129686 0.129686
0.155657 0.155657 0.155657
0.183062 0.183062 0.183062
0.211902 0.211902 0.211902
0.242191 0.242191 0.242191
0.274128 0.274128 0.274128
0.18468 0.18468 0.18468
0.187686 0.187686 0.187686
0.1953 0.1953 0.1953
0.224674 0.224674 0.224674
0.255543 0.255543 0.255543
0.287877 0.287877 0.287877
0.321218 0.321218 0.321218
0.355322 0.355322 0.355322
0.389654 0.389654 0.389654
0.282902 0.282902 0.282902
0.289967 0.289967 0.289967
0.302235 0.302235 0.302235
0.33579 0.33579 0.33579
0.369848 0.369848 0.369848
0.404028 0.404028 0.404028
0.438102 0.438102 0.438102
0.472404 0.472404 0.472404
0.506325 0.506325 0.506325
0.394461 0.394461 0.394461
0.40325 0.40325 0.40325
0.418799 0.418799 0.418799
0.452766 0.452766 0.452766
0.486946 0.486946 0.486946
0.521477 0.521477 0.521477
0.556161 0.556161 0.556161
0.589853 0.589853 0.589853
0.623026 0.623026 0.623026
0.509773 0.509773 0.509773
0.518059 0.518059 0.518059
0.5364 0.5364 0.5364
0.570871 0.570871 0.570871
0.604913 0.604913 0.604913
0.638376 0.638376 0.638376
0.670924 0.670924 0.670924
0.702419 0.702419 0.702419
0.732662 0.732662 0.732662
0.623896 0.623896 0.623896
0.629969 0.629969 0.629969
0.651957 0.651957 0.651957
0.684306 0.684306 0.684306
0.715724 0.715724 0.715724
0.74609 0.74609 0.74609
0.77528 0.77528 0.77528
0.803311 0.803311 0.803311
0.830289 0.830289 0.830289
0.729885 0.729885 0.729885
0.731609 0.731609 0.731609
0.757534 0.757534 0.757534
0.786404 0.786404 0.786404
0.81445 0.81445 0.81445
0.841535 0.841535 0.841535
0.867887 0.867887 0.867887
0.893462 0.893462 0.893462
0.918654 0.918654 0.918654
0.787396 0.787396 0.787396
0.78967 0.78967 0.78967
0.82237 0.82237 0.82237
0.854841 0.854841 0.854841
0.886381 0.886381 0.886381
0.916609 0.916609 0.916609
0.943771 0.943771 0.943771
0.967681 0.967681 0.967681
0.987396 0.987396 0.987396
